korla/apps/scalable/gnome-window-manager.svg

<!DOCTYPE svg  PUBLIC '-//W3C//DTD SVG 1.1//EN'  'http://www.w3.org/Graphics/SVG/1.1/DTD/svg11.dtd'>
<svg style="clip-rule:evenodd;fill-rule:evenodd;stroke-linejoin:round;stroke-miterlimit:1.41421" version="1.1" viewBox="0 0 48 48" xmlns="http://www.w3.org/2000/svg">
 <rect x="2" y="7.9" width="44" height="33.201" style="fill-opacity:.666667"/>
 <rect x="2" y="6.899" width="44" height="33.201" style="fill:url(#_Linear1)"/>
 <g transform="translate(-.358192 -1.14275)">
  <path d="m34.013 23.46c-0.068-0.09-0.157-0.142-0.267-0.159l-2.325-0.356c-0.127-0.406-0.3-0.821-0.52-1.245 0.152-0.211 0.38-0.51 0.685-0.895 0.305-0.386 0.521-0.667 0.648-0.845 0.068-0.092 0.102-0.191 0.102-0.292 0-0.119-0.03-0.212-0.089-0.28-0.305-0.432-1.004-1.151-2.096-2.159-0.102-0.086-0.208-0.127-0.318-0.127-0.127 0-0.228 0.038-0.305 0.114l-1.803 1.359c-0.348-0.178-0.729-0.335-1.144-0.47l-0.355-2.337c-9e-3 -0.111-0.058-0.202-0.146-0.274-0.09-0.072-0.193-0.108-0.312-0.108h-2.82c-0.245 0-0.398 0.119-0.457 0.356-0.11 0.423-0.233 1.211-0.369 2.363-0.398 0.127-0.783 0.288-1.156 0.483l-1.753-1.36c-0.11-0.085-0.22-0.127-0.33-0.127-0.186 0-0.586 0.303-1.2 0.909-0.615 0.605-1.031 1.06-1.252 1.365-0.076 0.111-0.114 0.208-0.114 0.292 0 0.102 0.042 0.204 0.127 0.305 0.567 0.686 1.02 1.271 1.359 1.753-0.212 0.39-0.377 0.78-0.495 1.169l-2.363 0.356c-0.093 0.017-0.174 0.072-0.241 0.165-0.068 0.092-0.102 0.191-0.102 0.292v2.82c0 0.111 0.034 0.21 0.102 0.299 0.067 0.09 0.156 0.142 0.266 0.159l2.325 0.343c0.119 0.415 0.292 0.834 0.521 1.257-0.152 0.212-0.381 0.51-0.686 0.896-0.305 0.385-0.521 0.667-0.648 0.845-0.068 0.092-0.101 0.19-0.101 0.292 0 0.11 0.029 0.207 0.088 0.292 0.331 0.457 1.029 1.169 2.097 2.134 0.093 0.093 0.199 0.14 0.317 0.14 0.127 0 0.233-0.039 0.318-0.114l1.791-1.36c0.347 0.178 0.728 0.335 1.143 0.471l0.356 2.337c9e-3 0.11 0.057 0.201 0.146 0.273s0.193 0.108 0.311 0.108h2.821c0.245 0 0.398-0.119 0.457-0.356 0.11-0.423 0.233-1.21 0.368-2.362 0.398-0.127 0.784-0.288 1.156-0.483l1.754 1.372c0.118 0.076 0.228 0.114 0.33 0.114 0.186 0 0.584-0.3 1.194-0.902 0.61-0.601 1.029-1.059 1.257-1.372 0.077-0.085 0.115-0.182 0.115-0.292s-0.042-0.216-0.127-0.318c-0.61-0.745-1.063-1.329-1.36-1.753 0.17-0.313 0.335-0.698 0.496-1.156l2.35-0.355c0.101-0.017 0.186-0.072 0.254-0.166 0.068-0.093 0.101-0.19 0.101-0.292v-2.82c1e-3 -0.11-0.033-0.209-0.101-0.298zm-7.355 3.982c-0.635 0.635-1.402 0.953-2.3 0.953-0.897 0-1.664-0.318-2.299-0.953s-0.953-1.401-0.953-2.299 0.318-1.664 0.953-2.299 1.402-0.953 2.299-0.953c0.898 0 1.665 0.318 2.3 0.953s0.953 1.401 0.953 2.299-0.318 1.664-0.953 2.299z" style="fill-opacity:.85098;fill-rule:nonzero;fill:white"/>
 </g>
 <defs>
  <linearGradient id="_Linear1" x2="1" gradientTransform="matrix(.36743 -40.59 40.59 .36743 25 41.0771)" gradientUnits="userSpaceOnUse">
   <stop style="stop-color:rgb(86,96,105)" offset="0"/>
   <stop style="stop-color:rgb(108,120,132)" offset="1"/>
  </linearGradient>
 </defs>
</svg>

<?xml version="1.0" encoding="UTF-8" standalone="no"?>
<!DOCTYPE svg PUBLIC "-//W3C//DTD SVG 1.1//EN" "http://www.w3.org/Graphics/SVG/1.1/DTD/svg11.dtd">
<svg width="100%" height="100%" viewBox="0 0 48 48" version="1.1" xmlns="http://www.w3.org/2000/svg" xmlns:xlink="http://www.w3.org/1999/xlink" xml:space="preserve" xmlns:serif="http://www.serif.com/" style="fill-rule:evenodd;clip-rule:evenodd;stroke-linejoin:round;stroke-miterlimit:1.41421;">
    <rect id="rect15" x="2" y="7.9" width="44" height="33.201" style="fill-opacity:0.666667;"/>
    <rect id="rect17" x="2" y="6.899" width="44" height="33.201" style="fill:url(#_Linear1);"/>
    <g id="path19" transform="matrix(1,0,0,1,-0.358192,-1.14275)">
        <path d="M34.013,23.46C33.945,23.37 33.856,23.318 33.746,23.301L31.421,22.945C31.294,22.539 31.121,22.124 30.901,21.7C31.053,21.489 31.281,21.19 31.586,20.805C31.891,20.419 32.107,20.138 32.234,19.96C32.302,19.868 32.336,19.769 32.336,19.668C32.336,19.549 32.306,19.456 32.247,19.388C31.942,18.956 31.243,18.237 30.151,17.229C30.049,17.143 29.943,17.102 29.833,17.102C29.706,17.102 29.605,17.14 29.528,17.216L27.725,18.575C27.377,18.397 26.996,18.24 26.581,18.105L26.226,15.768C26.217,15.657 26.168,15.566 26.08,15.494C25.99,15.422 25.887,15.386 25.768,15.386L22.948,15.386C22.703,15.386 22.55,15.505 22.491,15.742C22.381,16.165 22.258,16.953 22.122,18.105C21.724,18.232 21.339,18.393 20.966,18.588L19.213,17.228C19.103,17.143 18.993,17.101 18.883,17.101C18.697,17.101 18.297,17.404 17.683,18.01C17.068,18.615 16.652,19.07 16.431,19.375C16.355,19.486 16.317,19.583 16.317,19.667C16.317,19.769 16.359,19.871 16.444,19.972C17.011,20.658 17.464,21.243 17.803,21.725C17.591,22.115 17.426,22.505 17.308,22.894L14.945,23.25C14.852,23.267 14.771,23.322 14.704,23.415C14.636,23.507 14.602,23.606 14.602,23.707L14.602,26.527C14.602,26.638 14.636,26.737 14.704,26.826C14.771,26.916 14.86,26.968 14.97,26.985L17.295,27.328C17.414,27.743 17.587,28.162 17.816,28.585C17.664,28.797 17.435,29.095 17.13,29.481C16.825,29.866 16.609,30.148 16.482,30.326C16.414,30.418 16.381,30.516 16.381,30.618C16.381,30.728 16.41,30.825 16.469,30.91C16.8,31.367 17.498,32.079 18.566,33.044C18.659,33.137 18.765,33.184 18.883,33.184C19.01,33.184 19.116,33.145 19.201,33.07L20.992,31.71C21.339,31.888 21.72,32.045 22.135,32.181L22.491,34.518C22.5,34.628 22.548,34.719 22.637,34.791C22.726,34.863 22.83,34.899 22.948,34.899L25.769,34.899C26.014,34.899 26.167,34.78 26.226,34.543C26.336,34.12 26.459,33.333 26.594,32.181C26.992,32.054 27.378,31.893 27.75,31.698L29.504,33.07C29.622,33.146 29.732,33.184 29.834,33.184C30.02,33.184 30.418,32.884 31.028,32.282C31.638,31.681 32.057,31.223 32.285,30.91C32.362,30.825 32.4,30.728 32.4,30.618C32.4,30.508 32.358,30.402 32.273,30.3C31.663,29.555 31.21,28.971 30.913,28.547C31.083,28.234 31.248,27.849 31.409,27.391L33.759,27.036C33.86,27.019 33.945,26.964 34.013,26.87C34.081,26.777 34.114,26.68 34.114,26.578L34.114,23.758C34.115,23.648 34.081,23.549 34.013,23.46L34.013,23.46ZM26.658,27.442C26.023,28.077 25.256,28.395 24.358,28.395C23.461,28.395 22.694,28.077 22.059,27.442C21.424,26.807 21.106,26.041 21.106,25.143C21.106,24.245 21.424,23.479 22.059,22.844C22.694,22.209 23.461,21.891 24.358,21.891C25.256,21.891 26.023,22.209 26.658,22.844C27.293,23.479 27.611,24.245 27.611,25.143C27.611,26.041 27.293,26.807 26.658,27.442Z" style="fill:white;fill-opacity:0.85098;fill-rule:nonzero;"/>
    </g>
    <defs>
        <linearGradient id="_Linear1" x1="0" y1="0" x2="1" y2="0" gradientUnits="userSpaceOnUse" gradientTransform="matrix(0.36743,-40.59,40.59,0.36743,25,41.0771)"><stop offset="0" style="stop-color:rgb(86,96,105);stop-opacity:1"/><stop offset="1" style="stop-color:rgb(108,120,132);stop-opacity:1"/></linearGradient>
    </defs>
</svg>
